src/pos-icons/volume-source.svg

<svg height="24" viewBox="0 0 24 24" width="24" xmlns="http://www.w3.org/2000/svg"><path d="m3 9v6h4l5 5v-16l-5 5zm13 6h-2v-6h2zm4 4h-2v-14h2z"/></svg>

<?xml version="1.0" encoding="UTF-8"?><!DOCTYPE svg PUBLIC "-//W3C//DTD SVG 1.1//EN" "http://www.w3.org/Graphics/SVG/1.1/DTD/svg11.dtd"><svg xmlns="http://www.w3.org/2000/svg" xmlns:xlink="http://www.w3.org/1999/xlink" version="1.1" id="mdi-volume-source" width="24" height="24" viewBox="0 0 24 24"><path d="M3 9V15H7L12 20V4L7 9H3M16 15H14V9H16V15M20 19H18V5H20V19Z" /></svg>
